X:25
T:Polska från Östergötland
T:Svenska Folkdansar H4 nr 25
O:Östergötland
B:Traditioner av Svenska Folkdansar Häfte 4, nr 25
R:Polska
Z:Nils L
U:w=wedge
U:t=tenuto
M:3/4
L:1/16
K:C
cded c2cd B2Bc | ABcB A2AB G2GA | FEFG AGAB cdef | gfdB GABc dgfd | S
cded c2cd B2Bc | ABcB A2AB G2GA | FEFG AGAB cdef | gfdB c4 !fine!C4 ::
e2dc e2c2 egfe | d2cB d2B2 dfed | c2B2 A2B2 c2e2 | dcBA (A4 "^D.C. al Segno"G4) :|

